X:1
T:Title
%%score 1 { ( 2 3 ) | ( 4 5 ) }
L:1/8
Q:1/4=100
M:4/4
K:E
V:1 treble nm="Grand Piano, Soprano"
V:2 bass nm="Choir Pad, All for Jesus (Atchison)"
V:3 bass 
V:4 bass 
V:5 bass 
V:1
 [B,G]3 [A,F] [G,E]2 [CA]2 | [B,G]3 [G,E] [B,G]2 [A,F]2 | [CA]3 [B,G] [A,F]2 [B,G]2 | [G,E]6 z2 | %4
w: By~Edwin~Othello~Excell * * *||||
 [B,G]3 [A,F] [G,E]2 [CA]2 | [B,G]3 [G,E] [B,G]2 [A,F]2 | [CA]3 [B,G] [A,F]2 [B,G]2 | [G,E]6 z2 | %8
w: ||||
 [GB]3 [GB] [EG]2 [Ge]2 | [Bd]2 [Ac]2 [GB]2 [EG]2 | [GB]3 [EG] [Ge]2 [GB]2 | %11
w: |||
 [Bd]2 [Ac]2 [GB]2 [FA]2 | [B,G]3 [A,F] [G,E]2 [CA]2 | [B,G]3 [G,E] [B,G]2 [A,F]2 | %14
w: |||
 [CA]3 [B,G] [A,F]2 [B,G]2 | [G,E]8 |] %16
w: ||
V:2
 B,4 G,2 C2 | B,2 z2 B,2 A,2 | C2 z2 A,2 z2 | z E,G,B, EB,G,E, | z4 G,2 z2 | B,2 z2 B,2 A,2 | %6
 C2 z2 A,2 B,2 | G,6 z2 | E3 E B,2 B,2 | A,B,[K:treble]CD E2 B,2 | E3 B, B,2 E2 | %11
 E2 E2[K:bass] B,2 B,2 | B,2 z2 G,2 C2 | B,2 z2 B,2 A,2 | C2 z2 A,2 B,2 | G,6 z2 |] %16
V:3
 z E,E,A, z E, z E, | z E,G,E, z B,, z B,, | z B,,B,,B, z B,,B,,B,, | G,2 z2 z4 | %4
 B,B,E,A, z E,E,E, | z E,E,G, z B,, z B,, | z B,,B,,B, z B,, z B,, | x8 | x8 | x2[K:treble] x6 | %10
 x8 | x4[K:bass] x4 | z E,E,A, z E, z E, | z E,E,G, z B,, z B,, | z B,,B,,B, z B,, z B,, | x8 |] %16
V:4
 z2 z E, z2 .E,2 | z2 .E,2 z2 .B,,2 | z2 z B,, B,,,4 | E,,6 z2 | z E, z E, E,,4 | %5
 z2 z E, z2 .B,,2 | z2 z B,, z2 .B,,2 | z E,C,G,, E,,2 z2 | E,3 E, E,2 E,2 | A,,3 A,, E,2 E,2 | %10
 E,3 E, E,2 E,2 | A,2 A,2 z2 B,,2 | z2 z E, z2 .E,2 | z2 z E, z2 .B,,2 | z2 z B,, z2 .B,,2 | %15
 z E,D,G,, E,,4 |] %16
V:5
 E,,4 E,,4 | E,,4 B,,,4 | B,,,4 z4 | x8 | E,,4 z4 | E,,4 B,,,4 | B,,,4 B,,,4 | E,,4 z4 | x8 | x8 | %10
 x8 | x8 | E,,4 E,,4 | E,,4 B,,,4 | B,,,4 B,,,4 | E,,4 z4 |] %16

